src/Pure/16/symbolic/actions/object-merge-symbolic.svg

<?xml version="1.0" encoding="UTF-8" standalone="no"?>
<svg
   width="16"
   height="16"
   version="1.1"
   id="svg1"
   sodipodi:docname="object-merge-symbolic.svg"
   inkscape:version="1.4.2 (ebf0e940d0, 2025-05-08)"
   xmlns:inkscape="http://www.inkscape.org/namespaces/inkscape"
   xmlns:sodipodi="http://sodipodi.sourceforge.net/DTD/sodipodi-0.dtd"
   xmlns="http://www.w3.org/2000/svg"
   xmlns:svg="http://www.w3.org/2000/svg">
  <defs
     id="defs1">
     <style
        id="current-color-scheme"
        type="text/css">
        .ColorScheme-Text { color:#363636; }
     </style>
  </defs>
  <sodipodi:namedview
     id="namedview1"
     pagecolor="#ffffff"
     bordercolor="#000000"
     borderopacity="0.25"
     inkscape:showpageshadow="2"
     inkscape:pageopacity="0.0"
     inkscape:pagecheckerboard="0"
     inkscape:deskcolor="#d1d1d1"
     inkscape:zoom="49.6875"
     inkscape:cx="8"
     inkscape:cy="8"
     inkscape:window-width="1920"
     inkscape:window-height="1010"
     inkscape:window-x="0"
     inkscape:window-y="0"
     inkscape:window-maximized="1"
     inkscape:current-layer="svg1" />
  <path
     id="path1"
     style="fill:currentColor"
     class="ColorScheme-Text"
     d="M 7.5 2 L 3.9648438 5.5351562 L 4.671875 6.2421875 L 7 3.9140625 L 7 9 A 4 4 0 0 1 3 13 L 0 13 L 0 14 L 3 14 A 5 5 0 0 0 7.5 11.167969 A 5 5 0 0 0 12 14 L 15 14 L 15 13 L 12 13 A 4 4 0 0 1 8 9 L 8 3.9140625 L 10.328125 6.2421875 L 11.035156 5.5351562 L 7.5 2 z " />
</svg>

<svg width="16" height="16" version="1.1" xmlns="http://www.w3.org/2000/svg">
 <path d="m7.5 2-3.5352 3.5352 0.70703 0.70703 2.3281-2.3281v5.0859a4 4 0 0 1-4 4h-3v1h3a5 5 0 0 0 4.5-2.832 5 5 0 0 0 4.5 2.832h3v-1h-3a4 4 0 0 1-4-4v-5.0859l2.3281 2.3281 0.70703-0.70703-3.5352-3.5352z" fill="#363636"/>
</svg>
